flaticon/education/flask.svg

<svg xmlns="http://www.w3.org/2000/svg" width="32" height="32" viewBox="0 0 24 24">
    <path d="M 16.480469 11.039062 C 15.679688 10.441406 15.199219 9.558594 15.199219 8.640625 L 15.199219 5.601562 L 15.679688 5.601562 C 16.078125 5.601562 16.398438 5.28125 16.359375 4.839844 L 16.359375 3.921875 C 16.359375 3.519531 16.039062 3.199219 15.640625 3.199219 L 15.199219 3.199219 L 15.199219 0.71875 C 15.199219 0.320312 14.878906 0 14.480469 0 L 9.519531 0 C 9.121094 0 8.800781 0.320312 8.800781 0.71875 L 8.800781 3.199219 L 8.320312 3.199219 C 7.921875 3.199219 7.601562 3.519531 7.601562 3.921875 L 7.601562 4.878906 C 7.601562 5.28125 7.921875 5.601562 8.320312 5.601562 L 8.800781 5.601562 L 8.800781 8.640625 C 8.800781 9.601562 8.320312 10.441406 7.519531 11.039062 C 5.558594 12.480469 4.398438 14.761719 4.398438 17.199219 C 4.398438 20.039062 6 22.640625 8.519531 23.960938 L 8.601562 24 L 15.398438 24 L 15.480469 23.960938 C 18 22.640625 19.601562 20.039062 19.601562 17.199219 C 19.601562 14.761719 18.441406 12.480469 16.480469 11.039062 Z M 14.398438 3.199219 L 13.199219 3.199219 C 13.199219 2.761719 13.558594 2.398438 14 2.398438 C 14.160156 2.398438 14.28125 2.441406 14.398438 2.519531 Z M 9.601562 0.800781 L 10.679688 0.800781 C 10.761719 0.921875 10.800781 1.039062 10.800781 1.199219 C 10.800781 1.640625 10.441406 2 10 2 C 9.839844 2 9.71875 1.960938 9.601562 1.878906 Z M 9.601562 2.746094 C 9.730469 2.78125 9.863281 2.800781 10 2.800781 C 10.878906 2.800781 11.601562 2.078125 11.601562 1.199219 C 11.601562 1.0625 11.582031 0.929688 11.546875 0.800781 L 14.398438 0.800781 L 14.398438 1.65625 C 14.269531 1.621094 14.136719 1.601562 14 1.601562 C 13.121094 1.601562 12.398438 2.320312 12.398438 3.199219 L 9.601562 3.199219 Z M 8.398438 4.800781 L 8.398438 4 L 15.601562 4 L 15.601562 4.800781 Z M 8 11.679688 C 9 10.960938 9.601562 9.839844 9.601562 8.640625 L 9.601562 5.601562 L 14.398438 5.601562 L 14.398438 8.640625 C 14.398438 9.800781 15 10.960938 16 11.679688 C 17.234375 12.578125 18.117188 13.871094 18.53125 15.3125 C 17.65625 16.25 16.628906 16.761719 15.640625 16.761719 C 14.601562 16.761719 13.640625 16.28125 12.761719 15.320312 C 11.839844 14.238281 10.441406 13.601562 8.921875 13.601562 L 8.878906 13.601562 C 7.71875 13.601562 6.597656 13.957031 5.722656 14.585938 C 6.195312 13.441406 6.976562 12.425781 8 11.679688 Z M 15.199219 23.199219 L 8.800781 23.199219 C 6.601562 22 5.199219 19.71875 5.199219 17.199219 C 5.199219 16.785156 5.238281 16.371094 5.3125 15.964844 C 5.386719 15.941406 5.460938 15.898438 5.519531 15.839844 C 6.28125 14.960938 7.519531 14.398438 8.839844 14.398438 L 8.878906 14.398438 C 10.199219 14.441406 11.359375 14.960938 12.121094 15.878906 C 13.160156 17 14.320312 17.601562 15.601562 17.601562 C 16.691406 17.601562 17.753906 17.132812 18.730469 16.230469 C 18.777344 16.550781 18.800781 16.875 18.800781 17.199219 C 18.800781 19.71875 17.441406 22 15.199219 23.199219 Z M 15.199219 23.199219"/>
    <path d="M11.601562 16.800781C11.359375 16.800781 11.199219 16.960938 11.199219 17.199219 11.199219 17.441406 11.359375 17.601562 11.601562 17.601562 11.839844 17.601562 12 17.441406 12 17.199219 12 17 11.839844 16.800781 11.601562 16.800781zM10 21.199219C9.761719 21.199219 9.601562 21.359375 9.601562 21.601562 9.601562 21.839844 9.761719 22 10 22 10.238281 22 10.398438 21.839844 10.398438 21.601562 10.398438 21.398438 10.238281 21.199219 10 21.199219zM8.398438 16.800781L7.601562 16.800781C7.160156 16.800781 6.800781 17.160156 6.800781 17.601562L6.800781 18.398438C6.800781 18.839844 7.160156 19.199219 7.601562 19.199219L8.398438 19.199219C8.839844 19.199219 9.199219 18.839844 9.199219 18.398438L9.199219 17.601562C9.199219 17.160156 8.839844 16.800781 8.398438 16.800781zM8.398438 18.398438L7.601562 18.398438 7.601562 17.601562 8.398438 17.601562zM14.800781 19.199219L14 19.199219C13.558594 19.199219 13.199219 19.558594 13.199219 20L13.199219 20.800781C13.199219 21.238281 13.558594 21.601562 14 21.601562L14.800781 21.601562C15.238281 21.601562 15.601562 21.238281 15.601562 20.800781L15.601562 20C15.601562 19.558594 15.238281 19.199219 14.800781 19.199219zM14.800781 20.800781L14 20.800781 14 20 14.800781 20zM14.800781 20.800781"/>
</svg>

<svg xmlns="http://www.w3.org/2000/svg" width="32" height="32" viewBox="0 0 24 24">
    <path d="M16.48 11.04c-.8-.599-1.28-1.481-1.28-2.4V5.603h.48c.398 0 .718-.32.68-.762v-.918a.718.718 0 0 0-.72-.723h-.44V.72A.717.717 0 0 0 14.48 0H9.52a.717.717 0 0 0-.72.719v2.48h-.48a.718.718 0 0 0-.718.723v.957c0 .402.32.723.718.723h.48V8.64c0 .96-.48 1.8-1.28 2.398a7.64 7.64 0 0 0-3.122 6.16c0 2.84 1.602 5.442 4.122 6.762l.082.039h6.796l.082-.04c2.52-1.32 4.122-3.92 4.122-6.76a7.64 7.64 0 0 0-3.122-6.16zM14.398 3.2H13.2c0-.438.36-.802.801-.802.16 0 .281.043.398.122zM9.602.8h1.078a.66.66 0 0 1 .12.4c0 .44-.359.8-.8.8a.652.652 0 0 1-.398-.121zm0 1.946c.128.035.261.055.398.055.879 0 1.602-.723 1.602-1.602 0-.137-.02-.27-.055-.398h2.851v.855A1.509 1.509 0 0 0 14 1.602c-.879 0-1.602.718-1.602 1.597H9.602zM8.398 4.801V4h7.204v.8zM8 11.68c1-.72 1.602-1.84 1.602-3.04V5.603h4.796V8.64c0 1.16.602 2.32 1.602 3.039a6.83 6.83 0 0 1 2.531 3.633c-.875.937-1.902 1.449-2.89 1.449-1.04 0-2-.48-2.88-1.442-.921-1.082-2.32-1.718-3.84-1.718H8.88c-1.16 0-2.281.355-3.156.984A6.817 6.817 0 0 1 8 11.68zm7.2 11.52H8.8c-2.198-1.2-3.6-3.481-3.6-6 0-.415.038-.829.112-1.235a.518.518 0 0 0 .208-.125c.761-.88 2-1.442 3.32-1.442h.039c1.32.043 2.48.563 3.242 1.48 1.04 1.122 2.2 1.724 3.48 1.724 1.09 0 2.153-.47 3.13-1.372.046.32.07.645.07.97 0 2.519-1.36 4.8-3.602 6zm0 0"/>
    <path d="M11.602 16.8c-.243 0-.403.16-.403.4 0 .241.16.402.403.402.238 0 .398-.16.398-.403a.4.4 0 0 0-.398-.398zm0 0M10 21.2c-.238 0-.398.16-.398.402 0 .238.16.398.398.398.238 0 .398-.16.398-.398a.4.4 0 0 0-.398-.403zm0 0M8.398 16.8h-.796c-.442 0-.801.36-.801.802v.796c0 .442.36.801.8.801h.797c.442 0 .801-.36.801-.8v-.797c0-.442-.36-.801-.8-.801zm0 1.598h-.796v-.796h.796zm0 0M14.8 19.2H14c-.441 0-.8.359-.8.8v.8c0 .438.359.802.8.802h.8c.438 0 .802-.364.802-.801V20c0-.441-.364-.8-.801-.8zm0 1.6H14V20h.8zm0 0"/>
</svg>
